packages/definitions/src/definitions/plangs/o/ocaml/ocaml.logo.svg

<svg xmlns="http://www.w3.org/2000/svg" width="146" height="40" viewBox="0 0 146 40" fill="none">
  <path d="M23.8586 35.2395C23.7675 34.8752 23.9496 34.4199 23.7675 34.0557C23.6764 33.6914 23.4032 33.6914 23.3122 33.4182C22.9479 32.6897 22.4926 31.8702 22.4926 30.9595C22.4926 30.231 22.2194 29.5025 22.1284 28.774C22.1284 28.4097 22.1284 28.0455 22.1284 27.6812C22.1284 27.4991 22.1284 27.317 22.0373 27.1349C22.0373 27.0438 22.0373 26.8617 21.9462 26.8617L22.0373 26.5885C22.0373 26.4974 22.8569 26.4974 23.1301 26.4974C23.5854 26.4974 23.9496 26.4974 24.4049 26.5885C25.3156 26.5885 26.0441 26.5885 26.9547 26.4974C28.867 26.2242 29.6866 25.4047 30.1419 25.1315C31.8721 23.9477 32.6917 21.8532 32.6917 21.8532C32.9649 21.2158 32.9649 20.0319 33.6023 19.5766C34.3308 18.9392 35.5147 19.0302 36.3342 18.666C36.7895 18.4839 37.1538 18.3017 37.7002 18.3928C38.0644 18.4839 38.7019 18.9392 38.884 18.3017C38.7929 18.2107 38.7019 18.1196 38.6108 18.0285C39.3393 17.9375 38.6108 16.3894 38.3376 16.0252C37.8823 15.5698 37.2449 15.2966 36.5163 15.1145C35.6057 14.8413 34.7862 14.5681 33.9666 14.7503C32.5096 15.0235 32.6006 14.2039 31.7811 14.2039C30.7794 14.2039 28.9581 14.295 28.5938 15.2966C28.4117 15.752 28.3207 15.752 28.0475 16.1162C27.8653 16.3894 28.0475 16.6626 27.9564 17.0268C27.8653 17.3911 27.6832 18.666 27.5011 19.1213C27.2279 19.8498 26.8636 20.7604 26.2262 20.7604C25.3156 20.8515 24.5871 20.9426 23.8586 20.6694C23.4032 20.4873 22.6747 20.2141 22.3105 20.123C20.5803 19.3945 20.3071 18.666 20.3071 18.666C20.125 18.3928 19.6697 17.8464 19.4875 17.209C19.3054 16.4805 18.9411 15.9341 18.8501 15.5698C18.668 15.2056 18.3948 14.5681 18.1216 13.9307C17.7573 13.1111 17.302 12.4737 16.9378 12.2005C16.3914 11.7452 15.9361 11.0167 14.8433 11.1988C14.6612 11.1988 13.9327 11.2899 13.3863 11.7452C13.022 12.0184 12.931 12.6558 12.5667 13.2022C12.3846 13.4754 12.0203 14.386 11.7472 15.1145C11.565 15.6609 11.474 16.0252 11.2008 16.2073C11.0186 16.3894 10.8365 16.5715 10.5633 16.4805C10.3812 16.3894 10.1991 16.2983 10.017 16.2073C9.74376 16.0252 9.19738 15.0235 8.83313 14.386C8.55994 13.7486 7.9225 12.8379 7.55825 12.3826C7.01187 11.6541 6.73868 11.472 5.91911 11.472C4.27997 11.472 4.09784 12.3826 3.36934 13.7486C3.00509 14.386 2.91402 15.2966 2.27658 16.0252C2.00339 16.3894 0.819569 18.1196 0 18.3928L0 30.9595L0 30.8685C0.0910632 30.6863 0.0910632 30.5042 0.182126 30.4131C0.546379 29.7757 1.27488 29.1383 1.63914 28.4097C1.82126 28.0455 2.09445 27.6812 2.27658 27.2259C2.36764 26.9527 2.45871 26.4064 2.64083 26.1332C2.82296 25.7689 3.18721 25.6779 3.55147 25.5868C4.18891 25.4957 4.64422 26.4064 5.37273 26.7706C5.64592 26.9527 7.10293 27.4081 7.55825 27.4991C8.28675 27.6812 9.01526 27.7723 9.74376 27.9544C10.108 28.0455 10.4723 28.0455 10.9276 28.1366C11.2918 28.1366 12.6578 28.2276 12.6578 28.3187C12.0203 28.6829 11.565 29.5936 11.2918 30.3221C11.0186 31.0506 10.8365 31.8702 10.5633 32.5076C10.1991 33.2361 9.47057 33.6004 9.56164 34.511C9.56164 34.8752 9.6527 35.2395 9.56164 35.6037C9.47057 36.0591 9.28845 36.3323 9.19738 36.7876C9.01526 37.3339 8.83313 39.0641 8.651 39.5195L10.108 39.3373C10.2901 38.9731 10.3812 37.3339 10.4723 37.1518C10.7455 36.3322 11.1097 35.6948 11.6561 35.0574C12.2025 34.4199 12.2025 33.6914 12.4757 32.9629C12.8399 32.1433 13.2952 31.597 13.7505 30.8685C14.5701 29.5936 15.1165 27.8634 16.7556 27.4991C16.9378 27.4991 17.9395 28.2276 18.3948 28.6829C18.9411 29.2293 19.4875 29.7757 19.8518 30.5042C20.4892 31.8702 21.1267 33.8735 21.3088 34.8752C21.3999 35.5127 21.4909 35.5127 21.9462 36.0591C22.1284 36.2412 22.4926 36.9697 22.6747 37.2429C22.7658 37.5161 23.039 38.1535 23.1301 38.5178C23.2211 38.6999 23.4943 39.3373 23.6764 39.8837H25.0424C24.496 38.3356 24.0407 36.7876 23.8586 35.2395Z" fill="white"/>
  <path d="M23.1301 38.4278C22.948 38.0636 22.7659 37.4261 22.6748 37.1529C22.5838 36.8798 22.1284 36.1512 21.9463 35.9691C21.491 35.5138 21.3999 35.4227 21.3089 34.7853C21.1267 33.6925 20.4893 31.6892 19.8519 30.4143C19.4876 29.6858 18.9412 29.1394 18.3948 28.593C17.9395 28.1377 16.9378 27.4092 16.7557 27.4092C15.0255 27.7734 14.5702 29.4126 13.7506 30.7785C13.2953 31.507 12.84 32.1445 12.4757 32.873C12.1115 33.6015 12.2025 34.421 11.6562 34.9674C11.1098 35.6049 10.7455 36.2423 10.4723 37.0619C10.3813 37.244 10.2902 38.8831 10.1081 39.2474L12.6579 39.0653C15.0255 39.2474 14.297 40.158 18.0306 39.9759L23.8586 39.7938C23.4944 39.2474 23.2212 38.61 23.1301 38.4278Z" fill="url(#paint0_linear_3331_371)"/>
  <path d="M40.0678 0.000244141L5.73698 0.000244141C2.54977 0.000244141 0 2.64108 0 5.82829L0 18.4861C0.819569 18.1218 2.00339 16.3916 2.36764 15.9363C3.00509 15.2078 3.09615 14.2061 3.4604 13.6597C4.18891 12.2938 4.37103 11.3831 6.01017 11.3831C6.82974 11.3831 7.10293 11.5653 7.64931 12.2938C8.01356 12.7491 8.651 13.6597 8.92419 14.2061C9.28845 14.9346 9.83483 15.8452 10.108 16.0274C10.2901 16.2095 10.4723 16.3006 10.6544 16.3006C10.9276 16.3916 11.1097 16.2095 11.2918 16.0274C11.565 15.8452 11.6561 15.481 11.8382 14.9346C12.1114 14.2061 12.4757 13.2955 12.6578 13.0223C13.022 12.4759 13.1131 11.8385 13.4774 11.5653C14.0237 11.11 14.6612 11.11 14.9344 11.0189C16.0271 10.8368 16.4824 11.5653 17.0288 12.0206C17.3931 12.2938 17.8484 12.9312 18.2126 13.7508C18.4858 14.3882 18.8501 15.0257 18.9411 15.3899C19.0322 15.7542 19.3965 16.3006 19.5786 17.0291C19.7607 17.6665 20.216 18.1218 20.3982 18.4861C20.3982 18.4861 20.6714 19.3056 22.4016 19.9431C22.7658 20.1252 23.4943 20.3073 23.9496 20.4895C24.6781 20.7627 25.4066 20.7627 26.3173 20.5805C26.9547 20.5805 27.319 19.6699 27.5922 18.9414C27.7743 18.4861 27.9564 17.2112 28.0475 16.8469C28.1385 16.4827 27.8653 16.2095 28.1385 15.9363C28.4117 15.5721 28.5028 15.5721 28.6849 15.1167C28.9581 14.115 30.8704 14.024 31.8721 14.024C32.6917 14.024 32.6006 14.8436 34.0576 14.5704C34.8772 14.3882 35.6968 14.6614 36.6074 14.9346C37.3359 15.1167 38.0644 15.3899 38.4287 15.8452C38.7019 16.1184 39.3393 17.7576 38.7019 17.8486C38.7929 17.9397 38.7929 18.0308 38.9751 18.1218C38.7929 18.7593 38.1555 18.304 37.7912 18.2129C37.3359 18.1218 36.9717 18.2129 36.4253 18.4861C35.6057 18.8503 34.3308 18.8503 33.6934 19.3967C33.0559 19.9431 33.0559 21.0359 32.7828 21.6733C32.7828 21.6733 31.9632 23.7677 30.233 24.9516C29.7777 25.3158 28.9581 26.0443 27.0458 26.3175C26.2262 26.4086 25.4066 26.4996 24.496 26.4086C24.0407 26.4086 23.6764 26.4086 23.2211 26.3175C22.9479 26.3175 22.1284 26.3175 22.1284 26.4086L22.0373 26.6818C22.0373 26.7728 22.0373 26.955 22.1284 26.955C22.1284 27.1371 22.1284 27.3192 22.2194 27.5013C22.2194 27.8656 22.2194 28.2298 22.2194 28.5941C22.2194 29.3226 22.4926 30.0511 22.5837 30.7796C22.5837 31.5992 23.039 32.5098 23.4032 33.2383C23.5854 33.5115 23.7675 33.5115 23.8586 33.8758C23.9496 34.24 23.8586 34.6043 23.9496 35.0596C24.1318 36.6077 24.5871 38.1557 25.3156 39.6128C26.1351 39.4306 27.0458 39.1574 28.1385 38.9753C30.1419 38.7021 32.9649 38.7932 34.7861 38.7021C39.3393 38.2468 41.8891 40.6144 45.9869 39.6128L45.9869 5.82829C45.8959 2.64108 43.3461 0.000244141 40.0678 0.000244141Z" fill="url(#paint1_linear_3331_371)"/>
  <path d="M10.5633 32.5087C10.9276 31.7802 11.1097 31.0517 11.2918 30.3232C11.565 29.5947 11.9293 28.6841 12.6578 28.3198C12.5667 28.2287 11.2008 28.1377 10.9276 28.1377C10.5633 28.1377 10.1991 28.0466 9.74376 27.9555C9.01526 27.7734 8.19569 27.6824 7.55825 27.5002C7.10293 27.4092 5.73698 26.8628 5.37273 26.7717C4.64422 26.4075 4.18891 25.4968 3.55147 25.5879C3.18721 25.679 2.82296 25.77 2.64083 26.1343C2.45871 26.4075 2.36764 26.9539 2.27658 27.3181C2.09445 27.6824 1.91233 28.1377 1.63914 28.5019C1.18382 29.2304 0.455316 29.8679 0.182126 30.5053C0.0910632 30.6874 0.0910632 30.7785 0 30.9606L0 38.7921C0.364253 38.8831 0.728506 38.9742 1.18382 39.0653C4.37103 39.8848 5.1906 39.9759 8.37782 39.6116H8.651C8.9242 39.0653 9.10632 37.4261 9.19738 36.8797C9.28845 36.5155 9.47057 36.1512 9.56164 35.6959C9.6527 35.3317 9.56164 34.9674 9.56164 34.6032C9.47057 33.6015 10.1991 33.2372 10.5633 32.5087Z" fill="url(#paint2_linear_3331_371)"/>
  <path d="M60.5571 34.8759C59.009 34.8759 57.6431 34.6027 56.3682 34.0563C55.0933 33.5099 54.0006 32.6904 53.0899 31.6887C52.1793 30.687 51.4508 29.4121 50.9955 27.9551C50.5402 26.4981 50.267 24.8589 50.267 22.9466C50.267 21.1253 50.5402 19.4862 50.9955 18.0292C51.4508 16.5722 52.1793 15.3884 53.0899 14.3867C54.0006 13.385 55.0933 12.6565 56.3682 12.1101C57.6431 11.5637 59.009 11.2905 60.5571 11.2905C62.1052 11.2905 63.4711 11.5637 64.746 12.1101C66.0209 12.6565 67.1137 13.385 68.0243 14.3867C68.9349 15.3884 69.6634 16.5722 70.1187 18.0292C70.5741 19.4862 70.8473 21.1253 70.8473 22.9466C70.8473 24.7679 70.5741 26.407 70.1187 27.9551C69.6634 29.4121 68.9349 30.687 68.0243 31.6887C67.1137 32.6904 66.0209 33.5099 64.746 34.0563C63.4711 34.6027 62.1052 34.8759 60.5571 34.8759ZM60.5571 30.5049C62.1052 30.5049 63.289 29.8674 64.1996 28.5015C65.1103 27.1355 65.5656 25.4053 65.5656 23.0377C65.5656 20.7611 65.1103 19.0309 64.1996 17.756C63.289 16.4811 62.1052 15.8437 60.5571 15.8437C59.009 15.8437 57.8252 16.4811 56.9146 17.756C56.004 19.0309 55.5486 20.7611 55.5486 23.0377C55.5486 25.3142 56.004 27.1355 56.9146 28.5015C57.7342 29.8674 59.009 30.5049 60.5571 30.5049ZM72.5775 23.3109C72.5775 21.3985 72.8506 19.7594 73.4881 18.3024C74.0345 16.8454 74.854 15.5705 75.8557 14.5688C76.8574 13.5671 78.0412 12.7475 79.3161 12.2011C80.591 11.6548 82.048 11.3816 83.505 11.3816C84.871 11.3816 86.2369 11.6548 87.3297 12.2922C88.5135 12.8386 89.4242 13.5671 90.1527 14.3867L87.3297 17.5739C86.7833 17.0275 86.1459 16.6632 85.5995 16.299C85.0531 16.0258 84.3246 15.8437 83.505 15.8437C82.6855 15.8437 81.957 16.0258 81.3195 16.3901C80.6821 16.7543 80.0446 17.2096 79.4983 17.8471C78.9519 18.4845 78.5876 19.213 78.3144 20.1236C78.0412 21.0343 77.8591 22.036 77.8591 23.2198C77.8591 25.5874 78.3144 27.4087 79.3161 28.6836C80.3178 29.9585 81.6838 30.5959 83.3229 30.5959C84.2335 30.5959 85.0531 30.4138 85.7816 30.0495C86.5101 29.6853 87.0565 29.23 87.694 28.5925L90.5169 31.6887C89.6063 32.7814 88.5135 33.601 87.2386 34.1474C86.0548 34.6938 84.6889 34.967 83.3229 34.967C81.8659 34.967 80.5 34.6938 79.2251 34.2384C77.9502 33.7831 76.7664 32.9636 75.8557 32.0529C74.9451 31.1423 74.1255 29.8674 73.5792 28.4104C72.8506 26.8623 72.5775 25.2232 72.5775 23.3109ZM92.1561 29.6853C92.1561 27.864 92.8846 26.4981 94.4326 25.4964C95.9807 24.4947 98.4394 23.7662 101.809 23.493C101.718 22.7645 101.536 22.127 101.08 21.6717C100.625 21.2164 99.9875 21.0343 99.0769 21.0343C98.3484 21.0343 97.6198 21.2164 96.8913 21.4896C96.1628 21.7628 95.3433 22.127 94.5237 22.6734L92.7024 19.3041C93.7952 18.6666 94.979 18.1203 96.1628 17.6649C97.3466 17.2096 98.7126 17.0275 99.9875 17.0275C102.173 17.0275 103.903 17.6649 105.087 18.9398C106.271 20.2147 106.817 22.127 106.817 24.8589L106.817 34.6938L102.81 34.6938L102.446 32.9636H102.355C101.627 33.601 100.807 34.1474 99.9875 34.5116C99.1679 34.8759 98.2573 35.1491 97.2556 35.1491C96.436 35.1491 95.7986 35.058 95.1611 34.7848C94.5237 34.5116 93.9773 34.1474 93.522 33.6921C93.0667 33.2368 92.7024 32.6904 92.5203 32.0529C92.2471 31.1423 92.1561 30.4138 92.1561 29.6853ZM96.9824 29.321C96.9824 29.8674 97.1645 30.3227 97.5288 30.5959C97.893 30.8691 98.3484 30.9602 98.9858 30.9602C99.6232 30.9602 100.079 30.8691 100.534 30.5959C100.989 30.3227 101.353 29.9585 101.809 29.5032V26.4981C99.9875 26.7713 98.7126 27.1355 97.9841 27.5908C97.3466 28.0461 96.9824 28.6836 96.9824 29.321ZM109.913 17.3007L114.102 17.3007L114.467 19.4862H114.649C115.377 18.7577 116.106 18.1203 116.925 17.6649C117.745 17.1186 118.747 16.8454 119.839 16.8454C121.023 16.8454 122.025 17.1186 122.844 17.5739C123.573 18.0292 124.21 18.7577 124.666 19.6683C125.394 18.8488 126.214 18.2113 127.033 17.6649C127.853 17.1186 128.855 16.8454 130.038 16.8454C131.86 16.8454 133.226 17.4828 134.136 18.6666C135.047 19.9415 135.411 21.5807 135.411 23.7662L135.411 34.4206H130.312L130.312 24.4036C130.312 23.1287 130.129 22.3092 129.765 21.8538C129.401 21.3985 128.855 21.1253 128.126 21.1253C127.306 21.1253 126.305 21.6717 125.212 22.7645L125.212 34.4206L120.112 34.4206L120.112 24.4036C120.112 23.1287 119.93 22.3092 119.566 21.8538C119.202 21.3985 118.655 21.1253 117.927 21.1253C117.016 21.1253 116.106 21.6717 115.013 22.7645L115.013 34.4206L109.913 34.4206L109.913 17.3007ZM138.325 10.1978L143.425 10.1978L143.425 29.4121C143.425 29.9585 143.516 30.3227 143.698 30.5049C143.88 30.687 144.062 30.778 144.335 30.778L144.608 30.778C144.7 30.778 144.791 30.778 144.973 30.687L145.61 34.5116C145.337 34.6027 144.973 34.6938 144.517 34.7848C144.062 34.8759 143.607 34.8759 142.969 34.8759C142.059 34.8759 141.33 34.6938 140.784 34.4206C140.146 34.1474 139.691 33.7831 139.327 33.2368C138.963 32.7814 138.689 32.144 138.507 31.4155C138.325 30.778 138.325 30.0495 138.325 29.1389L138.325 10.1978Z" fill="#111827"/>
  <defs>
    <linearGradient id="paint0_linear_3331_371" x1="16.835" y1="27.4364" x2="16.835" y2="39.999" gradientUnits="userSpaceOnUse">
      <stop stop-color="#F29100"/>
      <stop offset="1" stop-color="#EC670F"/>
    </linearGradient>
    <linearGradient id="paint1_linear_3331_371" x1="22.9406" y1="0.0189121" x2="22.9406" y2="40.0244" gradientUnits="userSpaceOnUse">
      <stop stop-color="#F29100"/>
      <stop offset="1" stop-color="#EC670F"/>
    </linearGradient>
    <linearGradient id="paint2_linear_3331_371" x1="6.32489" y1="25.5653" x2="6.32489" y2="39.7471" gradientUnits="userSpaceOnUse">
      <stop stop-color="#F29100"/>
      <stop offset="1" stop-color="#EC670F"/>
    </linearGradient>
  </defs>
</svg>

<svg xmlns="http://www.w3.org/2000/svg" width="146" height="40" fill="none"><path fill="#fff" d="M23.859 35.24c-.092-.365.09-.82-.092-1.184-.09-.365-.364-.365-.455-.638-.364-.728-.82-1.548-.82-2.459 0-.728-.273-1.456-.364-2.185v-1.093c0-.182 0-.364-.09-.546 0-.091 0-.273-.092-.273l.091-.273c0-.092.82-.092 1.093-.092.455 0 .82 0 1.275.091.91 0 1.64 0 2.55-.09 1.912-.274 2.732-1.093 3.187-1.367 1.73-1.183 2.55-3.278 2.55-3.278.273-.637.273-1.821.91-2.276.729-.638 1.913-.547 2.732-.911.455-.182.82-.364 1.366-.273.364.09 1.002.546 1.184-.091l-.273-.273c.728-.091 0-1.64-.273-2.004-.456-.455-1.093-.728-1.822-.91-.91-.274-1.73-.547-2.55-.365-1.456.274-1.365-.546-2.185-.546-1.002 0-2.823.091-3.187 1.093-.182.455-.273.455-.547.82-.182.272 0 .546-.09.91-.092.364-.274 1.639-.456 2.094-.273.729-.637 1.64-1.275 1.64-.91.09-1.639.182-2.367-.092-.456-.182-1.184-.455-1.549-.546-1.73-.729-2.003-1.457-2.003-1.457-.182-.273-.637-.82-.82-1.457-.182-.729-.546-1.275-.637-1.64-.182-.363-.455-1-.728-1.638-.365-.82-.82-1.457-1.184-1.73-.547-.456-1.002-1.184-2.095-1.002-.182 0-.91.09-1.457.546-.364.273-.455.91-.82 1.457-.181.273-.546 1.184-.819 1.912-.182.547-.273.911-.546 1.093-.182.182-.365.364-.638.273l-.546-.273c-.273-.182-.82-1.184-1.184-1.821-.273-.637-.91-1.548-1.275-2.003-.546-.729-.82-.911-1.639-.911-1.639 0-1.821.91-2.55 2.277-.364.637-.455 1.548-1.092 2.276C2.003 16.39.82 18.12 0 18.393v12.566-.09c.091-.183.091-.365.182-.456.364-.637 1.093-1.275 1.457-2.003.182-.364.455-.729.638-1.184.09-.273.182-.82.364-1.093.182-.364.546-.455.91-.546.638-.091 1.093.82 1.822 1.184.273.182 1.73.637 2.185.728.729.182 1.457.273 2.186.455.364.091.728.091 1.184.183.364 0 1.73.09 1.73.182-.638.364-1.093 1.275-1.366 2.003s-.456 1.548-.729 2.186c-.364.728-1.092 1.092-1.001 2.003 0 .364.09.728 0 1.093-.091.455-.274.728-.365 1.184-.182.546-.364 2.276-.546 2.732l1.457-.183c.182-.364.273-2.003.364-2.185a5.95 5.95 0 0 1 1.184-2.095c.547-.637.547-1.366.82-2.094.364-.82.82-1.366 1.274-2.094.82-1.275 1.367-3.006 3.006-3.37.182 0 1.183.729 1.639 1.184.546.546 1.093 1.093 1.457 1.821.637 1.366 1.275 3.37 1.457 4.371.09.638.182.638.637 1.184.182.182.547.91.729 1.184.09.273.364.91.455 1.275.091.182.364.82.546 1.366h1.366c-.546-1.548-1.001-3.096-1.183-4.645"/><path fill="url(#a)" d="M23.13 38.428c-.182-.364-.364-1.002-.455-1.275s-.547-1.002-.729-1.184c-.455-.455-.546-.546-.637-1.184-.182-1.092-.82-3.096-1.457-4.37-.364-.73-.91-1.276-1.457-1.822-.456-.455-1.457-1.184-1.64-1.184-1.73.364-2.185 2.004-3.004 3.37-.456.728-.911 1.366-1.275 2.094-.365.729-.274 1.548-.82 2.094a6 6 0 0 0-1.184 2.095c-.09.182-.182 1.821-.364 2.185l2.55-.182c2.367.182 1.639 1.093 5.373.91l5.828-.181c-.365-.547-.638-1.184-.729-1.366"/><path fill="url(#b)" d="M40.068 0H5.737C2.55 0 0 2.641 0 5.828v12.658c.82-.364 2.003-2.094 2.368-2.55.637-.728.728-1.73 1.092-2.276.729-1.366.911-2.277 2.55-2.277.82 0 1.093.182 1.64.91.364.456 1.001 1.367 1.274 1.913.364.729.91 1.64 1.184 1.821q.273.273.546.274c.274.09.456-.091.638-.274.273-.182.364-.546.546-1.092.273-.729.638-1.64.82-1.913.364-.546.455-1.184.82-1.457.546-.455 1.183-.455 1.456-.546 1.093-.182 1.548.546 2.095 1.002.364.273.82.91 1.184 1.73.273.637.637 1.275.728 1.639s.456.91.638 1.64c.182.636.637 1.092.82 1.456 0 0 .272.82 2.003 1.457.364.182 1.092.364 1.548.546.728.274 1.457.274 2.367.091.638 0 1.002-.91 1.275-1.639.182-.455.364-1.73.456-2.094.09-.364-.183-.638.09-.91.274-.365.365-.365.547-.82.273-1.002 2.185-1.093 3.187-1.093.82 0 .729.82 2.186.546.82-.182 1.639.091 2.55.365.728.182 1.456.455 1.82.91.274.273.911 1.913.274 2.004.09.09.09.182.273.273-.182.637-.82.182-1.184.09-.455-.09-.82 0-1.366.274-.82.364-2.094.364-2.732.91-.637.547-.637 1.64-.91 2.277 0 0-.82 2.095-2.55 3.279-.455.364-1.275 1.092-3.187 1.365-.82.092-1.64.183-2.55.092-.455 0-.82 0-1.275-.091-.273 0-1.093 0-1.093.09l-.09.274c0 .09 0 .273.09.273 0 .182 0 .364.091.546v1.093c0 .729.274 1.457.365 2.186 0 .82.455 1.73.82 2.458.181.273.363.273.455.638.09.364 0 .728.09 1.184a13.8 13.8 0 0 0 1.367 4.553c.82-.182 1.73-.456 2.823-.638 2.003-.273 4.826-.182 6.647-.273 4.553-.455 7.103 1.912 11.2.91V5.829C45.897 2.641 43.347 0 40.069 0"/><path fill="url(#c)" d="M10.563 32.509c.365-.729.547-1.457.729-2.186.273-.728.637-1.639 1.366-2.003-.091-.091-1.457-.182-1.73-.182-.365 0-.729-.091-1.184-.183-.729-.182-1.548-.273-2.186-.455-.455-.09-1.821-.637-2.185-.728-.729-.364-1.184-1.275-1.822-1.184-.364.091-.728.182-.91.546-.182.273-.273.82-.364 1.184-.183.364-.365.82-.638 1.184-.455.728-1.184 1.366-1.457 2.003-.09.182-.09.274-.182.456v7.831c.364.091.729.182 1.184.273 3.187.82 4.007.91 7.194.547h.273c.273-.547.455-2.186.546-2.732.091-.364.274-.729.365-1.184.09-.364 0-.729 0-1.093-.091-1.001.637-1.366 1.001-2.094"/><path fill="#111827" d="M60.557 34.876c-1.548 0-2.914-.273-4.189-.82s-2.367-1.366-3.278-2.367c-.91-1.002-1.64-2.277-2.095-3.734s-.728-3.096-.728-5.008c0-1.822.273-3.46.728-4.918a9.6 9.6 0 0 1 2.095-3.642c.91-1.002 2.003-1.73 3.278-2.277 1.275-.546 2.641-.82 4.19-.82 1.547 0 2.913.274 4.188.82 1.275.547 2.368 1.275 3.278 2.277a9.6 9.6 0 0 1 2.095 3.642 16.4 16.4 0 0 1 .728 4.918c0 1.82-.273 3.46-.728 5.008-.456 1.457-1.184 2.732-2.095 3.734-.91 1.001-2.003 1.82-3.278 2.367s-2.64.82-4.189.82m0-4.371c1.548 0 2.732-.638 3.643-2.003s1.366-3.097 1.366-5.464c0-2.277-.456-4.007-1.366-5.282s-2.095-1.912-3.643-1.912-2.732.637-3.642 1.912c-.911 1.275-1.366 3.005-1.366 5.282q0 3.415 1.366 5.464c.82 1.365 2.094 2.003 3.642 2.003m12.02-7.194c0-1.913.274-3.552.911-5.009.546-1.457 1.366-2.732 2.368-3.733a11.2 11.2 0 0 1 3.46-2.368c1.275-.546 2.732-.82 4.189-.82 1.366 0 2.732.274 3.825.911a8.5 8.5 0 0 1 2.823 2.095l-2.823 3.187c-.547-.547-1.184-.91-1.73-1.275-.547-.273-1.275-.455-2.095-.455q-1.23 0-2.185.546c-.638.364-1.275.82-1.822 1.457-.546.637-.91 1.366-1.184 2.277-.273.91-.455 1.912-.455 3.096 0 2.367.455 4.189 1.457 5.464 1.002 1.274 2.368 1.912 4.007 1.912q1.365 0 2.459-.547c.728-.364 1.275-.819 1.912-1.456l2.823 3.096a8.66 8.66 0 0 1-3.278 2.458c-1.184.547-2.55.82-3.916.82a12.1 12.1 0 0 1-4.098-.729c-1.275-.455-2.459-1.274-3.37-2.185-.91-.91-1.73-2.186-2.276-3.643-.728-1.548-1.001-3.187-1.001-5.1m19.58 6.374c0-1.821.728-3.187 2.276-4.189 1.548-1.001 4.006-1.73 7.376-2.003-.091-.728-.273-1.366-.729-1.821-.455-.456-1.093-.638-2.003-.638-.729 0-1.457.182-2.186.456-.728.273-1.548.637-2.367 1.183l-1.822-3.369a24 24 0 0 1 3.46-1.64c1.185-.454 2.55-.637 3.825-.637 2.186 0 3.916.638 5.1 1.913s1.73 3.187 1.73 5.919v9.835h-4.007l-.364-1.73h-.091c-.728.637-1.548 1.183-2.368 1.548-.82.364-1.73.637-2.731.637-.82 0-1.457-.091-2.095-.364a5.2 5.2 0 0 1-1.639-1.093c-.455-.455-.82-1.002-1.002-1.64-.273-.91-.364-1.638-.364-2.367m4.825-.364c0 .546.183 1.002.547 1.275s.82.364 1.457.364 1.093-.09 1.548-.364c.455-.273.819-.637 1.275-1.093v-3.005q-2.732.41-3.825 1.093c-.637.455-1.002 1.093-1.002 1.73m12.931-12.02h4.189l.365 2.185h.182c.728-.728 1.457-1.366 2.276-1.821.82-.546 1.822-.82 2.914-.82 1.184 0 2.186.274 3.005.729.729.455 1.366 1.184 1.822 2.094.728-.82 1.548-1.457 2.367-2.003q1.23-.82 3.005-.82c1.822 0 3.188.638 4.098 1.822.911 1.274 1.275 2.914 1.275 5.1V34.42h-5.099V24.404c0-1.275-.183-2.095-.547-2.55-.364-.456-.91-.729-1.639-.729-.82 0-1.821.547-2.914 1.64V34.42h-5.1V24.404c0-1.275-.182-2.095-.546-2.55-.364-.456-.911-.729-1.639-.729-.911 0-1.821.547-2.914 1.64V34.42h-5.1zm28.412-7.103h5.1v19.214q0 .82.273 1.093a.83.83 0 0 0 .637.273h.273c.092 0 .183 0 .365-.091l.637 3.825a9 9 0 0 1-1.093.273c-.455.09-.91.09-1.548.09-.91 0-1.639-.181-2.185-.454-.638-.274-1.093-.638-1.457-1.184-.364-.456-.638-1.093-.82-1.822-.182-.637-.182-1.366-.182-2.276z"/><defs><linearGradient id="a" x1="16.835" x2="16.835" y1="27.436" y2="39.999" gradientUnits="userSpaceOnUse"><stop stop-color="#F29100"/><stop offset="1" stop-color="#EC670F"/></linearGradient><linearGradient id="b" x1="22.941" x2="22.941" y1=".019" y2="40.024" gradientUnits="userSpaceOnUse"><stop stop-color="#F29100"/><stop offset="1" stop-color="#EC670F"/></linearGradient><linearGradient id="c" x1="6.325" x2="6.325" y1="25.565" y2="39.747" gradientUnits="userSpaceOnUse"><stop stop-color="#F29100"/><stop offset="1" stop-color="#EC670F"/></linearGradient></defs></svg>
